azure-patterns/function01.svg

<svg xmlns="http://www.w3.org/2000/svg" viewBox="0 0 48 49"><path d="M45.397 24.977l-.017-.033.46-.46-10.26-10.266L45.79 3.994l-.468-.469-.26-.519-13.801 6.886-6.796-6.802-.452.443-.402-.401-6.813 6.794-13.86-6.928-.285.56-.435.436L12.454 14.25 2.377 24.308l-.067.033.008.025-.092.093.285.284.084.159-.41.41 10.278 10.274L2.26 45.81l.56.561.202.402 13.75-6.878 6.797 6.794.444-.443.443.443 6.755-6.769 13.734 6.886.168-.326.644-.636-10.228-10.25 10.236-10.249-.368-.368zM24.64 23.396v-8.133l5.415 2.711-5.415 5.422zm6.604-4.836l11.416 5.715H25.536l5.708-5.715zm-5.859-4.334l5.625-2.803 2.795 2.795-2.812 2.81-5.608-2.802zm-2 1.004v8.208l-5.466-5.48 5.466-2.728zm-6.395 1.79l-2.753-2.76 2.812-2.803 5.532 2.769-5.59 2.794zm5.466 7.255h-17.2l11.483-5.732 5.717 5.732zm.05 1.255l-5.733 5.747L5.315 25.53h17.191zm.879.895v8.166l-5.432-2.728 5.432-5.438zm-.804 9.161l-5.557 2.778-2.779-2.778 2.779-2.786 5.557 2.786zm2.06-1.029v-8.09l5.39 5.396-5.39 2.694zm6.327-1.757l2.795 2.795-2.795 2.794-5.591-2.803 5.59-2.786zm-5.482-7.27h17.216L31.22 31.27l-5.733-5.74zm16.747-2.87l-10.06-5.037 2.52-2.519 7.54 7.556zm-.1-16.784l-7.449 7.455-2.494-2.493 9.943-4.962zm-17.493 7.32V5.049l5.432 5.438-5.432 2.71zm-1.255-8.065v8.091l-5.407-2.702 5.407-5.389zM5.85 5.86l10.01 5.004-2.51 2.501-7.5-7.505zm7.491 9.287l2.461 2.46-9.868 4.928 7.407-7.388zm-7.49 12.057l9.984 5.003L13.35 34.7l-7.5-7.496zm.066 16.717l7.441-7.447 2.486 2.485-9.927 4.962zm17.468-7.33v8.15l-5.432-5.43 5.432-2.72zm1.264 8.141v-8.107l5.39 2.702-5.39 5.405zm17.492-.736l-9.993-5.012 2.494-2.501 7.5 7.513zm-9.993-11.789l9.96-4.978-7.466 7.48-2.494-2.502z" fill="#50E6FF"/><path d="M45.305 6.02a2.494 2.494 0 100-4.988 2.494 2.494 0 000 4.988zm-21.275 0a2.494 2.494 0 100-4.988 2.494 2.494 0 000 4.988zm-21.427 0a2.494 2.494 0 100-4.988 2.494 2.494 0 000 4.988zm42.685 21.418a2.494 2.494 0 10.001-4.988 2.494 2.494 0 000 4.988zm-21.258 0a2.494 2.494 0 100-4.988 2.494 2.494 0 000 4.988zm-21.427 0a2.494 2.494 0 100-4.988 2.494 2.494 0 000 4.988zm42.685 21.253a2.494 2.494 0 10.001-4.987 2.494 2.494 0 000 4.987zm-21.258 0a2.494 2.494 0 100-4.987 2.494 2.494 0 000 4.987zm-21.427 0a2.494 2.494 0 100-4.987 2.494 2.494 0 000 4.987z" fill="#0078D4"/></svg>

<svg xmlns="http://www.w3.org/2000/svg" viewBox="0 0 48 49"><path d="M45.397 24.977l-.017-.033.46-.46-10.26-10.266L45.79 3.994l-.468-.469-.26-.519-13.801 6.886-6.796-6.802-.452.443-.402-.401-6.813 6.794-13.86-6.928-.285.56-.435.436L12.454 14.25 2.377 24.308l-.067.033.008.025-.092.093.285.284.084.159-.41.41 10.278 10.274L2.26 45.81l.56.561.202.402 13.75-6.878 6.797 6.794.444-.443.443.443 6.755-6.769 13.734 6.886.168-.326.644-.636-10.228-10.25 10.236-10.249-.368-.368zM24.64 23.396v-8.133l5.415 2.711-5.415 5.422zm6.604-4.836l11.416 5.715H25.536l5.708-5.715zm-5.859-4.334l5.625-2.803 2.795 2.795-2.812 2.81-5.608-2.802zm-2 1.004v8.208l-5.466-5.48 5.466-2.728zm-6.395 1.79l-2.753-2.76 2.812-2.803 5.532 2.769-5.59 2.794zm5.466 7.255h-17.2l11.483-5.732 5.717 5.732zm.05 1.255l-5.733 5.747L5.315 25.53h17.191zm.879.895v8.166l-5.432-2.728 5.432-5.438zm-.804 9.161l-5.557 2.778-2.779-2.778 2.779-2.786 5.557 2.786zm2.06-1.029v-8.09l5.39 5.396-5.39 2.694zm6.327-1.757l2.795 2.795-2.795 2.794-5.591-2.803 5.59-2.786zm-5.482-7.27h17.216L31.22 31.27l-5.733-5.74zm16.747-2.87l-10.06-5.037 2.52-2.519 7.54 7.556zm-.1-16.784l-7.449 7.455-2.494-2.493 9.943-4.962zm-17.493 7.32V5.049l5.432 5.438-5.432 2.71zm-1.255-8.065v8.091l-5.407-2.702 5.407-5.389zM5.85 5.86l10.01 5.004-2.51 2.501-7.5-7.505zm7.491 9.287l2.461 2.46-9.868 4.928 7.407-7.388zm-7.49 12.057l9.984 5.003L13.35 34.7l-7.5-7.496zm.066 16.717l7.441-7.447 2.486 2.485-9.927 4.962zm17.468-7.33v8.15l-5.432-5.43 5.432-2.72zm1.264 8.141v-8.107l5.39 2.702-5.39 5.405zm17.492-.736l-9.993-5.012 2.494-2.501 7.5 7.513zm-9.993-11.789l9.96-4.978-7.466 7.48-2.494-2.502z" fill="#50E6FF"/><path d="M45.305 6.02a2.494 2.494 0 100-4.988 2.494 2.494 0 000 4.988zM24.03 6.02a2.494 2.494 0 100-4.988 2.494 2.494 0 000 4.988zM2.603 6.02a2.494 2.494 0 100-4.988 2.494 2.494 0 000 4.988zM45.288 27.438a2.494 2.494 0 10.001-4.988 2.494 2.494 0 000 4.988zM24.03 27.438a2.494 2.494 0 100-4.988 2.494 2.494 0 000 4.988zM2.603 27.438a2.494 2.494 0 100-4.988 2.494 2.494 0 000 4.988zM45.288 48.691a2.494 2.494 0 10.001-4.987 2.494 2.494 0 000 4.987zM24.03 48.691a2.494 2.494 0 100-4.987 2.494 2.494 0 000 4.987zM2.603 48.691a2.494 2.494 0 100-4.987 2.494 2.494 0 000 4.987z" fill="#0078D4"/></svg>
